X: 19532
T: James And The Giant Peach
R: jig
M: 6/8
K: Adorian
|:G|"Am" AcA "Am" E2 c|"Em" BGB "G" dBG|"Am" AcA "Am" E2 c|"Em" BGE "G" DBG|
"Am" AcA "Am" E2 c|"Em" BGB "G" deg|"Am" age "G" dBG|"Am" EAA "Am" A2:|
a|"Am" age "Am" aba|"Em" gef "Em" ged|"Am" cAG "Am" E2 c|"Em" BGB "G" deg|
"Am" age "Am" aba|"Em" gef "Em" ~g3|"Am" age "G" dBG|"Am" EAA "Am" A2 a|
"Am" age "Am" aba|"Em" gef "Em" ged|"Am" cAG "Am" E2 c|"Em" BGE "G" DBG|
"Am" AcA "Am" E2 c|"Em" BGB "G" deg|"Am" age "G" dBG|"Am" EAA "D" A2||
|:D|"Am" EAA "D" DAA|"Am" EAD "Am" EAc|"D" dDc "Em" BAG|"Am" AGE "D" DFG|
"Am" EAA "D" DAA|"Am" EAD "Am" EAc|"G" dgd "Em" BAG|"Am" EAA "D" A2:|

